X:1
T:Caput Apri Defero
T:Robert Lucas De Pearsall (1795-1856)
T:Caput Apri Defero
T:© CPDL 2013
T:(A Christmas Song)
T:© CPDL 2013
T:© CPDL 2013
T:© CPDL 2013
T:© CPDL 2013
T:© CPDL 2013
C:Robert Lucas De Pearsall (1795-1856)
Z:© CPDL 2013
%%score [ 1 2 3 4 ]
L:1/8
Q:3/8=80
M:6/8
K:A
V:1 treble nm="Soprano" snm="S."
V:2 treble nm="Alto" snm="A."
V:3 treble-8 transpose=-12 nm="Tenor" snm="T."
V:4 bass nm="Bass" snm="B."
V:1
"^Andante con moto" z6 | B2 B c2 e | d2 B (c2 A) |"^cresc." B2 B B2 B |!f! B3- B2 B | B2 z z2 z | %6
w: |Ca- put a- pri|de- fe- ro, _|Red- dens lau- des|Do- * mi-|no.|
 z6 | z6 | z2 z z2!f! A | e3 (e3- | ed)c (d3- | dc)B c2 c | c2 F B2 B | (BA)G A3- | A2 A A3- | %15
w: ||The|boar's head|_ _ in hand|_ _ bring I, With|gar- lands gay and|rose- * ma- ry,|_ I pray|
 A2 A A2 A | AAA AAA | (d3- dc)B | c2 G A2 F | E3 A2 B | c3- c2 B | A2 z z2 z |!pp! E3 E3 | A3 G3 | %24
w: _ you all sing|mer- ri- ly, mer- ri- ly,|mer- * * ri-|ly, Qui es- tis|in con- *|vi- * vi-|o.|Ca- put|a- pri|
 F3- F2 F | E2 z z2 z | E3 E3 | F3 A3- | A3 G2 F | E6- |"^rall." E6- | E2 z"^A tempo" z2 z | z6 | %33
w: de- * fe-|ro,|Red- dens|lau- des|_ Do- mi-|no.|_|||
 z6 | z2 z z2!f! A | e3 e2 e | (ed)c d2 d- | dcB c3- | c2 F (B3- | BA)G A3- | A2 A A3- | A2 A A3- | %42
w: |The|boar's head, I|un- * der- stand, Is|_ the chief ser-|* vice in|_ _ this land;|_ Look, look,|_ look, look,|
 A2 A AAA | d2 d (dc)B | c2 G AAF |!<(! (E3 (A2 B)!<)! | c3-!>(! c2) B | A2!>)! z z2!p! E | %48
w: _ wher- e- ver, wher-|e- ver it _ be|fand, Ser- vi- te cum|can- * *|* * ti-|co! ser-|
 E3 E2 E | A3- A2 A | !fermata!G2 z z2 z |"^Tempo primo" z2 z!mf! (A3- | A3 G3 | F6 | E3) E3 | %55
w: vi- te cum|can- * ti-|co!|Ca-|||* put|
"^cresc." (F3 B3- | B3 A3 | d3- dcB | c3) e3 |!ff! f2 f e2 c | f2 f eee | f3- f2 e | f2 f e2 z | %63
w: a- *|||* pri,|ca- put a- pri|de- fe- ro, Red- dens|lau- * des|Do- mi- no,|
 z2 z z2 e | d3 d3 | c3 A3 | A3 G3 | A3- A2 E | F2 G A3 | (B3 c3 | B3- B2) B | A3- A2 z || %72
w: Qui|es- tis|in con-|vi- vi-|o, _ Ser-|vi- te cum|can- *|* * ti-|co. _|
V:2
 z2 z A3- | A2 G A2 G | F2 G A3- |"^cresc." AGF G2 G |!f! F3- F2 F | E2 z z2 z | z6 | %7
w: Ca-|* put a- pri|de- fe- ro,|_ Red- dens lau- des|Do- * mi-|no.||
 z2 z z2!f! E | A3 (A3- | AG)F (G3 | F3- F2) D | E3- E2 C | D2 D D2 F | E2 E E(DE) | (F3 E2) E | %15
w: The|boar's head|_ _ in hand|_ _ bring|I, _ With|gar- lands gay and|rose- ma- ry, I _|pray _ you|
 (F3 E2) E | FFF EEE | D3 E3 | E2 D E2 D | D3 C2 ^D | E3 =D3 | C2 z z2 z |!pp! E3 B,3 | C2 ^D E3- | %24
w: all _ sing|mer- ri- ly, mer- ri- ly,|mer- ri-|ly, Qui es- tis|in con- *|vi- vi-|o.|Ca- put|a- pri de-|
 E3 ^D3 | E2 z z2 z | B,3 C3 | D3 E3 | (D6 | D3) C3 |"^rall." B,6- | B,2 z z2 z | z6 | %33
w: * fe-|ro,|Red- dens|lau- des|Do-|* mi-|no.|_||
 z2 z z2!f! E | A3 A2 A | (AG)F G3 | F3- F2 D | E3 E2 C | D3- D2 F | E3- E2 E | (F3 E2) E | %41
w: The|boar's head, I|un- * der- stand,|is _ the|chief ser- vice|in _ this|land; _ Look,|look, _ look,|
 (F3 E2) E | FFF E2 E | D3 E3 | E2 D EED |!<(! (D3 C2!<)! D | E3)!>(! D3!>)! | C2 z z2!p! E | %48
w: look, _ wher-|e- ver, wher- e- ver|it be|fand, Ser- vi- te cum|can- * *|* ti-|co! ser-|
 E3 E2 E | ^D3- D2 D | !fermata!E2 z z2 z | z6 | z2 z!mf! (E3- | E3 D3- | D3) C3 |"^cresc." (F6 | %56
w: vi- te cum|can- * ti-|co!||Ca-||* put|a-|
 E3 A3- | A3 G3 | A3) A3 |!ff! A2 A A2 A | A2 A A2 z | z AA B2 E | A2 A A2 z | z2 z z2 A | F3 G3 | %65
w: ||* pri,|ca- put a- pri|de- fe- ro,|Red- dens lau- des|Do- mi- no,|Qui|es- tis|
 A3 F3 | E3- E2 D | C3- C2 E | D3 E3- | E3 E3 | (F3 E2) D | C3- C2 z || %72
w: in con-|vi- * vi-|o, _ Ser-|vi- te|_ cum|can- * ti-|co. _|
V:3
 z6 | f2 e e2 c | d2 e e3 |"^cresc." ^d2 d e2 e |!f! B3- B2 A | G2 z z2 z | z2 z z2!f! A | %7
w: |Ca- put a- pri|de- fe- ro,|Red- dens lau- des|Do- * mi-|no.|The|
 e3 (e3- | ed)c d2 d | B3- B2 c | A3 B3 | G3 A3 | F3- F2 D | E3 A3 | A3- A2 A | A3- A2 A | %16
w: boar's head|_ _ in hand bring|I, _ With|gar- lands|gay and|rose- * ma-|ry, I|pray _ you|all _ sing|
 AAA A3- | A3 G3 | A2 d c2 A | G3 A3 | A3 G3 | A2 z z2 z |!pp! c3 B3 | A3 B3 | B3- B2 A | %25
w: mer- ri- ly, mer-|* ri-|ly, Qui es- tis|in con-|vi- vi-|o.|Ca- put|a- pri|de- * fe-|
 G2 z z2 z | G3 A3 | A3 A3 | F3 (B3- | B3 A3- |"^rall." A3 G2) F | G2 z z2 z | z2 z z2!f! A | %33
w: ro,|Red- dens|lau- des|Do- *||* * mi-|no.|The|
 e3 e2 e | (ed)c d3 | B3- B2 c | A3 B3- | B3 A3 | A3- A2 A | E3 A3 | A3- A2 A | A3- A2 A | %42
w: boar's head, I|un- * der- stand,|Is _ the|chief ser-|* vice|in _ this|land; Look,|look, _ look,|look, _ wher-|
 AAA A3- | A2 B G2 G | A2 d ccA |!<(! (G3!<)! A3- | A3)!>(! G3 | A2!>)! z z2!p! c | c3 c2 c | %49
w: e- ver, wher- e-|* ver it be|fand, Ser- vi- te cum|can- *|* ti-|co! ser-|vi- te cum|
 (c3 B2) A | !fermata!B2 z z2 z |!mf! (A6 | B6 | A6 | B3 c3- |"^cresc." c3) B3 | (e3 c3 | d3 e3- | %58
w: can- * ti-|co!|Ca-||||* put|a- *||
 e3) e3 |!ff! d2 d c2 e | d2 d ccc | d3- d2 c | d2 d c2 z | z2 z z2 c | d3 d3 | (e3 d2) c | B3 B3 | %67
w: * pri,|ca- put a- pri|de- fe- ro, Red- dens|lau- * des|Do- mi- no,|Qui|es- tis|in- * con-|vi- vi-|
 A3- A2 A | d3 c2 c | (B3 A3- | A3) G3 | A3- A2 z || %72
w: o, _ Ser-|vi- te cum|can- *|* ti-|co. _|
V:4
 A,2 E, F,2 C, | D,2 E, A,,2 z | B,,2 E, A,,2 C, |"^cresc." (B,,3 E,3- |!f! E,3) ^D,3 | %5
w: Ca- put a- pri|de- fe- ro,|Red- dens lau- des|Do- *|* mi-|
 E,2 z z2!f! E, | A,3 (A,3- | A,G,F, G,2) G, | F,3- F,2 F, | E,3- E,2 C, | D,3- D,2 C, | E,3 A,,3 | %12
w: no. The|boar's head|_ _ _ _ in|hand _ bring|I, _ With|gar- * lands|gay and|
 B,,3- B,,2 B,, | C,3- C,(B,,C,) | D,3- D,2 C, | D,3- D,2 C, | D,D,D, C,C,C, | B,,3 E,3 | %18
w: rose- * ma-|ry, _ I _|pray _ you|all _ sing|mer- ri- ly, mer- ri- ly,|mer- ri-|
 A,,2 B,, C,2 D, | E,3 F,3 | E,3 E,3 | A,,2 z z2 z |!pp! A,3 G,3 | F,3 E,3 | B,,3 B,,3 | %25
w: ly, Qui es- tis|in con-|vi- vi-|o.|Ca- put|a- pri|de- fe-|
 E,2 z z2 z | E,3 A,,3 | D,3 C,3 | (B,,3- B,,2 A,, | G,,3) A,,3 |"^rall." E,6- | E,2 z z2!f! E, | %32
w: ro,|Red- dens|lau- des|Do- * *|* mi-|no.|_ The|
 A,3 A,2 A, | (A,G,)F, G,3 | (F,6 | E,3- E,2) C, | D,3 D,2 B,, | (G,,3 A,,3 | B,,3- B,,2) B,, | %39
w: boar's head, I|un- * der- stand,|Is|_ _ the|chief ser- vice|in _|_ _ this|
 C,3- C,2 C, | D,3- D,2 C, | D,3- D,2 C, | D,D,D, C,2 C, | B,,3 E,3 | A,,2 B,, C,C,D, | %45
w: land; _ Look,|look, _ look,|look, _ wher-|e- ver, wher- e- ver|it be|fand, Ser- vi- te cum|
!<(! (E,3!<)! F,3 | E,3)!>(! E,3 | A,,2!>)! z z2!p! A, | A,3 A,2 A, | F,3- F,2 F, | %50
w: can- *|* ti-|co! ser-|vit- te cum|can- * ti-|
 !fermata!E,2 z z2 z | z6 |!mf! (E,6 | F,6) | G,3 (A,3 |"^cresc." D,6 | C,3 F,3 | B,,3 E,3 | %58
w: co!||Ca-||put a-||||
 A,,3) C,3 |!ff! D,2 F, A,2 A, | D,2 F, A,2 z | z A,A, G,2 A, | D,2 F, A,2 z | z2 z z2 A, | %64
w: * pri,|ca- put a- pri|de- fe- ro,|Red- dens lau- des|Do- mi- no,|Qui|
 B,3 B,,3 | C,3 D,3 | E,3 E,3 | F,3- F,2 C, | B,,3 A,,2 A,, | (G,,3 A,,3 | D,3) E,3 | %71
w: es- tis|in con-|vi- vi-|o, _ Ser-|vi- te cum|can- *|* ti-|
 A,,3- A,,2 z || %72
w: co. _|

